src/pos-icons/foot-print.svg

<svg height="24" viewBox="0 0 24 24" width="24" xmlns="http://www.w3.org/2000/svg"><path d="m16 2a2 2 0 1 1 -2 2 2 2 0 0 1 2-2m-3.96 1a1.5 1.5 0 1 1 -1.5 1.5 1.5 1.5 0 0 1 1.5-1.5m-2.95 1.5a1 1 0 1 1 -1 1 1 1 0 0 1 1-1m-2.05 1.5a1 1 0 1 1 -1 1 1 1 0 0 1 1-1m7.49 6a2.5 2.5 0 0 0 2.47-2.76 2.6 2.6 0 0 0 -2.61-2.24h-2.48a6 6 0 0 0 -5.79 4.4 2 2 0 0 0 .11 1.4 6.8 6.8 0 0 1 .68 2.96 6.89 6.89 0 0 1 -.69 2.79 1.92 1.92 0 0 0 .08 1.76 3.62 3.62 0 0 0 3.89 1.6 3.5 3.5 0 0 0 2.17-5.28 2.82 2.82 0 0 1 -.45-1.63s-.23-3 2.62-3z"/></svg>

<?xml version="1.0" encoding="UTF-8"?><!DOCTYPE svg PUBLIC "-//W3C//DTD SVG 1.1//EN" "http://www.w3.org/Graphics/SVG/1.1/DTD/svg11.dtd"><svg xmlns="http://www.w3.org/2000/svg" xmlns:xlink="http://www.w3.org/1999/xlink" version="1.1" id="mdi-foot-print" width="24" height="24" viewBox="0 0 24 24"><path d="M16 2A2 2 0 1 1 14 4A2 2 0 0 1 16 2M12.04 3A1.5 1.5 0 1 1 10.54 4.5A1.5 1.5 0 0 1 12.04 3M9.09 4.5A1 1 0 1 1 8.09 5.5A1 1 0 0 1 9.09 4.5M7.04 6A1 1 0 1 1 6.04 7A1 1 0 0 1 7.04 6M14.53 12A2.5 2.5 0 0 0 17 9.24A2.6 2.6 0 0 0 14.39 7H11.91A6 6 0 0 0 6.12 11.4A2 2 0 0 0 6.23 12.8A6.8 6.8 0 0 1 6.91 15.76A6.89 6.89 0 0 1 6.22 18.55A1.92 1.92 0 0 0 6.3 20.31A3.62 3.62 0 0 0 10.19 21.91A3.5 3.5 0 0 0 12.36 16.63A2.82 2.82 0 0 1 11.91 15S11.68 12 14.53 12Z" /></svg>
